material/.icons/material/keyboard-f4.svg

<svg xmlns="http://www.w3.org/2000/svg" viewBox="0 0 24 24"><path d="M5 7h6v2H7v2h3v2H7v4H5V7m8 0h2v4h2V7h2v10h-2v-4h-4V7z"/></svg>

<?xml version="1.0" encoding="UTF-8"?><!DOCTYPE svg PUBLIC "-//W3C//DTD SVG 1.1//EN" "http://www.w3.org/Graphics/SVG/1.1/DTD/svg11.dtd"><svg xmlns="http://www.w3.org/2000/svg" xmlns:xlink="http://www.w3.org/1999/xlink" version="1.1" id="mdi-keyboard-f4" width="24" height="24" viewBox="0 0 24 24"><path d="M5 7H11V9H7V11H10V13H7V17H5V7M13 7H15V11H17V7H19V17H17V13H13V7Z" /></svg>
